X: 24075
T: Long Drop, The
R: reel
M: 4/4
K: Gmajor
gedg edBA|GEED EDB,D|G3 A !turn!B/B/-B Bc|!turn!d/d/d ec d!turn!B B/B/B|$ gedg edBA|
GEED EDB,D|!turn!G3 A B/B/B Bc|d/d/B Ac BGGg|$ gedg edBA|GEED !turn!E3 F|
G2 GA !turn!B/B/-B Bc|!turn!d/d/d ec d!turn!B B/B/B|$ gedg edBA|GEED EDB,D|
!turn!G3 A B/B/-B Bc|d/d/B Ac BG G2||$ gBBA B/B/B gB|B/B/B .gB .aBAB|c/c/-c cd edef|
g/g/g bg egde|$ gBBA B/B/B gB|B/B/B .gB .aBAB|c/c/-c cd edef|gedc BG G2|$ gBBA B/B/B gB|
B/B/B .gB .aBAB|c/c/-c cd edef|g/g/g bg egde|$ gBBA B/B/B gB|B/B/B .gB .aBAB|
.c2 cd edef|g/g/g bg egde||

